X: 21159
T: Kathleen Katz'
R: jig
M: 6/8
K: Eminor
|:edB BAG|ABA DEF|GFG AGA|Bee efg|
edB BAG|ABA DEF|GFG AGA|1 BGE E2d:|2 BGE E2B||
|:eBe efg|faf def|gfg aga|bge edB|
eBe efg|faf def|gfe dBA|1 Bee e2B:|2 Bee e2d||

